icons/screen-normal-16.svg

<svg xmlns="http://www.w3.org/2000/svg" width="16" height="16" viewBox="0 0 16 16">
  <defs/>
  <path d="M10.75,1 C11.164,1 11.5,1.336 11.5,1.75 L11.5,4.25 C11.5,4.388 11.612,4.5 11.75,4.5 L14.25,4.5 C14.664,4.5 15,4.836 15,5.25 C15,5.664 14.664,6 14.25,6 L11.75,6 C10.784,6 10,5.216 10,4.25 L10,1.75 C10,1.336 10.336,1 10.75,1 Z M5.25,1 C5.664,1 6,1.336 6,1.75 L6,4.25 C6,5.216 5.216,6 4.25,6 L1.75,6 C1.336,6 1,5.664 1,5.25 C1,4.836 1.336,4.5 1.75,4.5 L4.25,4.5 C4.388,4.5 4.5,4.388 4.5,4.25 L4.5,1.75 C4.5,1.336 4.836,1 5.25,1 Z M1,10.75 C1,10.336 1.336,10 1.75,10 L4.25,10 C5.216,10 6,10.784 6,11.75 L6,14.25 C6,14.664 5.664,15 5.25,15 C4.836,15 4.5,14.664 4.5,14.25 L4.5,11.75 C4.5,11.612 4.388,11.5 4.25,11.5 L1.75,11.5 C1.336,11.5 1,11.164 1,10.75 Z M10,11.75 C10,10.784 10.784,10 11.75,10 L14.25,10 C14.664,10 15,10.336 15,10.75 C15,11.164 14.664,11.5 14.25,11.5 L11.75,11.5 C11.612,11.5 11.5,11.612 11.5,11.75 L11.5,14.25 C11.5,14.664 11.164,15 10.75,15 C10.336,15 10,14.664 10,14.25 Z"/>
</svg>

<svg xmlns="http://www.w3.org/2000/svg" width="16" height="16" viewBox="0 0 16 16"><path fill-rule="evenodd" d="M5.25 1a.75.75 0 01.75.75v2.5A1.75 1.75 0 014.25 6h-2.5a.75.75 0 010-1.5h2.5a.25.25 0 00.25-.25v-2.5A.75.75 0 015.25 1zm5.5 0a.75.75 0 01.75.75v2.5c0 .138.112.25.25.25h2.5a.75.75 0 010 1.5h-2.5A1.75 1.75 0 0110 4.25v-2.5a.75.75 0 01.75-.75zM1 10.75a.75.75 0 01.75-.75h2.5c.966 0 1.75.784 1.75 1.75v2.5a.75.75 0 01-1.5 0v-2.5a.25.25 0 00-.25-.25h-2.5a.75.75 0 01-.75-.75zm9 1c0-.966.784-1.75 1.75-1.75h2.5a.75.75 0 010 1.5h-2.5a.25.25 0 00-.25.25v2.5a.75.75 0 01-1.5 0v-2.5z"/></svg>
